assets/ai/ai-orcid-square.svg

<svg xmlns="http://www.w3.org/2000/svg" width="100%" height="100%" viewBox="-75.52 -43.52 599.04 599.04"><path d="M 48 32 C 21.5 32 0 53.5 0 80 L 0 432 C 0 458.5 21.5 480 48 480 L 400 480 C 426.5 480 448 458.5 448 432 L 448 80 C 448 53.5 426.5 32 400 32 L 48 32 z M 224 96 C 312.37321 96 384 167.63992 384 256 C 384 344.36009 312.37321 416 224 416 C 135.62679 416 64 344.36009 64 256 C 64 167.63992 135.62679 96 224 96 z M 161.38672 154.25391 C 154.18656 154.25391 148.34766 160.10614 148.34766 167.2793 C 148.34766 174.50609 154.20004 180.32031 161.38672 180.32031 C 168.6 180.32031 174.42525 174.5192 174.43945 167.2793 C 174.43945 160.09263 168.6 154.25391 161.38672 154.25391 z M 151.91992 194.16016 L 151.91992 326.6543 L 170.87891 326.6543 L 170.87891 194.16016 L 151.91992 194.16016 z M 200.45312 194.16016 L 200.45312 326.45312 L 242.36133 326.45312 C 254.13446 326.45312 262.09473 326.13381 266.28125 325.48047 C 270.45462 324.80053 275.02745 323.47971 280.02734 321.5332 C 288.57391 318.30628 296.06779 313.55956 302.50781 307.21289 C 308.841 301.0795 313.70591 293.96058 317.11914 285.86719 L 317.12109 285.86719 C 320.52082 277.7873 322.25443 269.30595 322.24023 260.42578 C 322.24023 248.05256 319.1337 236.60085 312.93359 226.10742 C 306.73346 215.62745 298.39971 207.65376 287.90625 202.25391 C 277.39933 196.84058 263.16106 194.16016 245.12109 194.16016 L 200.45312 194.16016 z M 219.45312 211.03906 L 243.13281 211.03906 C 252.25286 211.03906 258.84061 211.37352 262.94727 212.08008 C 267.06743 212.76004 271.41372 214.20099 276.01367 216.34766 L 276.01367 216.3457 C 280.5735 218.50584 284.65256 221.26623 288.19922 224.59961 C 297.81257 233.58659 302.61328 245.199 302.61328 259.42578 C 302.61328 273.90595 297.93278 285.87966 288.58594 295.37305 C 285.66599 298.29299 282.45385 300.73409 278.94727 302.7207 C 275.44072 304.7208 271.06578 306.34744 265.8125 307.64062 C 260.55922 308.93379 253.20114 309.58594 243.73438 309.58594 L 219.45312 309.58594 L 219.45312 211.03906 z"/></svg>

<svg xmlns="http://www.w3.org/2000/svg" width="100%" height="100%" viewBox="-75.52 -43.52 599.04 599.04"><path d="M48 32C21.5 32 0 53.5 0 80v352c0 26.5 21.5 48 48 48h352c26.5 0 48-21.5 48-48V80c0-26.5-21.5-48-48-48H48zm176 64c88.373 0 160 71.64 160 160s-71.627 160-160 160S64 344.36 64 256 135.627 96 224 96zm-62.613 58.254c-7.2 0-13.04 5.852-13.04 13.025 0 7.227 5.853 13.041 13.04 13.041a13.03 13.03 0 0013.052-13.04c0-7.187-5.839-13.026-13.052-13.026zm-9.467 39.906v132.494h18.959V194.16h-18.96zm48.533 0v132.293h41.908c11.773 0 19.734-.32 23.92-.973 4.174-.68 8.746-2 13.746-3.947 8.547-3.227 16.04-7.973 22.48-14.32 6.334-6.134 11.199-13.252 14.612-21.346h.002c3.4-8.08 5.133-16.561 5.12-25.441 0-12.373-3.107-23.825-9.307-34.319-6.2-10.48-14.534-18.453-25.028-23.853-10.507-5.413-24.745-8.094-42.785-8.094h-44.668zm19 16.88h23.68c9.12 0 15.708.334 19.814 1.04 4.12.68 8.467 2.121 13.067 4.268v-.002c4.56 2.16 8.639 4.92 12.185 8.254 9.614 8.987 14.414 20.599 14.414 34.826 0 14.48-4.68 26.454-14.027 35.947a44.802 44.802 0 01-9.639 7.348c-3.506 2-7.881 3.626-13.135 4.92-5.253 1.293-12.61 1.945-22.078 1.945h-24.28v-98.547z"/></svg>
